Newaita/actions/16/gnumeric-autosum.svg

<svg height="16" viewBox="0 0 16 16" width="16" xmlns="http://www.w3.org/2000/svg"><path d="m11.578125 1.449219c-.015625 0-.03125 0-.046875.003906h-6.902344c-.238281 0-.457031.128906-.574218.335937-.117188.210938-.109376.464844.019531.667969l3.09375 4.953125-3.761719 6.269532c-.125.203124-.125.457031-.011719.660156.117188.207031.335938.335937.574219.335937h7.5625c.015625 0 .03125.003907.046875.003907h.660156c.183594 0 .332031-.148438.332031-.332032v-.246094c.007813-.054687.007813-.113281 0-.171874v-1.566407c0-.183593-.148437-.332031-.332031-.332031h-.660156c-.183594 0-.332031.148438-.332031.332031v.996094h-6.113282l3.371094-5.617187c.125-.214844.125-.480469-.007812-.6875l-2.675782-4.285157h5.425782v.992188c0 .183593.148437.332031.332031.332031h.660156c.183594 0 .332031-.148438.332031-.332031v-1.566407c.007813-.058593.007813-.117187 0-.175781v-.242187c0-.183594-.148437-.328125-.332031-.328125zm0 0" fill="#424242"/></svg>

<svg xmlns="http://www.w3.org/2000/svg" xmlns:xlink="http://www.w3.org/1999/xlink" width="16px" height="16px" viewBox="0 0 16 16" version="1.1">
<g id="surface1">
     <defs>
  <style id="current-color-scheme" type="text/css">
   .ColorScheme-Text { color:#424242; } .ColorScheme-Highlight { color:#eeeeee; }
  </style>
 </defs>
<path style="fill:currentColor" class="ColorScheme-Text" d="M 11.578125 1.449219 C 11.5625 1.449219 11.546875 1.449219 11.53125 1.453125 L 4.628906 1.453125 C 4.390625 1.453125 4.171875 1.582031 4.054688 1.789062 C 3.9375 2 3.945312 2.253906 4.074219 2.457031 L 7.167969 7.410156 L 3.40625 13.679688 C 3.28125 13.882812 3.28125 14.136719 3.394531 14.339844 C 3.511719 14.546875 3.730469 14.675781 3.96875 14.675781 L 11.53125 14.675781 C 11.546875 14.675781 11.5625 14.679688 11.578125 14.679688 L 12.238281 14.679688 C 12.421875 14.679688 12.570312 14.53125 12.570312 14.347656 L 12.570312 14.101562 C 12.578125 14.046875 12.578125 13.988281 12.570312 13.929688 L 12.570312 12.363281 C 12.570312 12.179688 12.421875 12.03125 12.238281 12.03125 L 11.578125 12.03125 C 11.394531 12.03125 11.246094 12.179688 11.246094 12.363281 L 11.246094 13.359375 L 5.132812 13.359375 L 8.503906 7.742188 C 8.628906 7.527344 8.628906 7.261719 8.496094 7.054688 L 5.820312 2.769531 L 11.246094 2.769531 L 11.246094 3.761719 C 11.246094 3.945312 11.394531 4.09375 11.578125 4.09375 L 12.238281 4.09375 C 12.421875 4.09375 12.570312 3.945312 12.570312 3.761719 L 12.570312 2.195312 C 12.578125 2.136719 12.578125 2.078125 12.570312 2.019531 L 12.570312 1.777344 C 12.570312 1.59375 12.421875 1.449219 12.238281 1.449219 Z M 11.578125 1.449219 "/>
</g>
</svg>
